X: 702
T: On the River Bank   #2
R: reel
%S: s:2 b:11(5+6)
B: Francis O'Neill: "The Dance Music of Ireland" (1907) #702
Z: Frank Nordberg - http://www.musicaviva.com
F: http://www.musicaviva.com/abc/tunes/ireland/oneill-1001/0702/oneill-1001-0702-1.abc
M: C|
L: 1/8
K: G
[| d^cAF G2(GF) | DEFG ABcA | d^cAF GBAF |[1 DEFG ABcA :|[2 DFAc BGG2 |]
K: D
[| Addc d2cd | edcd efge |[1 fgef d2(dc) | AGFG ABcB :|[2 faef d2(dc) | Aceg fdd2 |]
